X: 21113
T: Kanturk, The
R: polka
M: 2/4
K: Dmajor
A|d>e fe|dc BA|B/c/d/B/ AF|E2- EA|
d>e fe|dc BA|B/c/d/B/ AF|D2- DA|
d/c/d/e/ f/g/f/e/|dc BA|B/c/d/B/ AF|E2 EA|
d/c/d/e/ f/g/f/e/|dc BA|B/c/d/B/ AF|D2 D2||
A/B/c/d/ ef|gb ag|fd/f/ af|e2 ea|
A/B/c/d/ ef|gb ag|fd/f/ ec|d2 da|
A/B/c/d/ ef|gb ag|f/e/d/f/ af|e2 ea|
A/B/c/d/ ef|g/g/b ag|f/e/d/f/ e/d/c/e/|d2 d||

